X:1
T:Title
%%score { ( 1 3 ) | ( 2 4 ) }
L:1/8
Q:1/4=100
M:6/8
K:Ab
V:1 treble nm="Grand Piano"
V:3 treble 
V:2 bass 
V:4 bass 
V:1
 [CE]2 [CA] G2 B | A2 d c3 | c2 c B2 F | B6 | [CE]2 [CA] G2 B | A2 d c3 | e2 [EA] [Ec]2 [DB] | %7
w: A.~L.~Byers * * *|||||||
[M:5/8] [CA]-[CA]- [CA]3 |[M:1/8] [Ae] |[M:3/4] [Ge]2 [GB] [Ge]2 [Bd] | c2 A c2 c | %11
w: ||||
 B2 A [EG]2 [=DF] | E6 | [CE][CE] [EA] G2 B/B/ |[M:7/8] A2 d c3 c/d/ |[M:3/4] e2 [EA] [Ec]2 [DB] | %16
w: |||||
 [CA]6 |] %17
w: |
V:2
 [A,,A,]2 [A,,A,] [E,B,D]2 [E,G,D] | [A,C]2[K:treble] [A,F] [A,E]3 | %2
 [A,E]2 [A,E] [F,B,=D]2 [F,B,D] | [E,G,D]6 | [A,,A,]2 [A,,A,] [E,B,D]2 [E,G,D] | %5
 [A,C]2 [A,F][K:bass] [A,E]3 | [A,CE]2 [C,A,] [E,A,]2 [E,G,] |[M:5/8] [A,,A,]-[A,,A,]- [A,,A,]3 | %8
[M:1/8] [A,C] |[M:3/4] [E,B,]2 [E,D] [E,B,]2 [E,E] | [A,EA]2 [A,C] [A,EA]2 [A,EA] | %11
 [B,EG]2 [B,F][K:bass] [B,,B,]2 [B,,A,] | E,3- [E,B,]3 | %13
 [A,,A,][A,,A,] [C,A,] [E,B,E]2 [E,G,D]/[E,G,D]/ | %14
[M:7/8][K:treble] [A,C]2 [A,F] [A,E]3 [A,E]/[A,B,E]/ | %15
[M:3/4][K:bass] [A,CE]2 [C,A,] [E,A,]2 [E,G,] | [A,,A,]6 |] %17
V:3
 x6 | x6 | x6 | x6 | x6 | x6 | x6 |[M:5/8] x5 |[M:1/8] x |[M:3/4] x6 | x6 | x6 | z2 z .D3 | x6 | %14
[M:7/8] x7 |[M:3/4] x6 | x6 |] %17
V:4
 x6 | x2[K:treble] x4 | x6 | x6 | x6 | x3[K:bass] x3 | x6 |[M:5/8] x5 |[M:1/8] x |[M:3/4] x6 | x6 | %11
 x3[K:bass] x3 | G,4 z2 | x6 |[M:7/8][K:treble] x7 |[M:3/4][K:bass] x6 | x6 |] %17

